svgs/regular/rectangle-pro.svg

<svg xmlns="http://www.w3.org/2000/svg" viewBox="0 0 640 512"><!--! Font Awesome Pro 6.5.1 by @fontawesome - https://fontawesome.com License - https://fontawesome.com/license (Commercial License) Copyright 2023 Fonticons, Inc. --><path d="M64 80c-8.8 0-16 7.2-16 16V416c0 8.8 7.2 16 16 16H576c8.8 0 16-7.2 16-16V96c0-8.8-7.2-16-16-16H64zM0 96C0 60.7 28.7 32 64 32H576c35.3 0 64 28.7 64 64V416c0 35.3-28.7 64-64 64H64c-35.3 0-64-28.7-64-64V96zm104 64h56c35.3 0 64 28.7 64 64s-28.7 64-64 64H128v40c0 13.3-10.7 24-24 24s-24-10.7-24-24V264 184c0-13.3 10.7-24 24-24zm56 80c8.8 0 16-7.2 16-16s-7.2-16-16-16H128v32h32zm80-56c0-13.3 10.7-24 24-24h56c35.3 0 64 28.7 64 64c0 21.9-11 41.2-27.7 52.7l24.1 38.5c7 11.2 3.6 26-7.6 33.1s-26 3.6-33.1-7.6l-33-52.7H288v40c0 13.3-10.7 24-24 24s-24-10.7-24-24V264 184zm48 56h32c8.8 0 16-7.2 16-16s-7.2-16-16-16H288v32zm200-80c48.6 0 88 39.4 88 88v16c0 48.6-39.4 88-88 88s-88-39.4-88-88V248c0-48.6 39.4-88 88-88zm-40 88v16c0 22.1 17.9 40 40 40s40-17.9 40-40V248c0-22.1-17.9-40-40-40s-40 17.9-40 40z"/></svg>

<svg xmlns="http://www.w3.org/2000/svg" viewBox="0 0 640 512"><!--! Font Awesome Pro 6.1.1 by @fontawesome - https://fontawesome.com License - https://fontawesome.com/license (Commercial License) Copyright 2022 Fonticons, Inc. --><path d="M160 160C195.3 160 224 188.7 224 224C224 259.3 195.3 288 160 288H128V328C128 341.3 117.3 352 104 352C90.75 352 80 341.3 80 328V184C80 170.7 90.75 160 104 160H160zM176 224C176 215.2 168.8 208 160 208H128V240H160C168.8 240 176 232.8 176 224zM240 184C240 170.7 250.7 160 264 160H320C355.3 160 384 188.7 384 224C384 245.9 373 265.2 356.3 276.7L380.4 315.3C387.4 326.5 383.1 341.3 372.7 348.4C361.5 355.4 346.7 351.1 339.6 340.7L306.7 288H288V328C288 341.3 277.3 352 264 352C250.7 352 240 341.3 240 328V184zM288 240H320C328.8 240 336 232.8 336 224C336 215.2 328.8 208 320 208H288V240zM576 248V264C576 312.6 536.6 352 488 352C439.4 352 400 312.6 400 264V248C400 199.4 439.4 160 488 160C536.6 160 576 199.4 576 248zM448 264C448 286.1 465.9 304 488 304C510.1 304 528 286.1 528 264V248C528 225.9 510.1 208 488 208C465.9 208 448 225.9 448 248V264zM0 96C0 60.65 28.65 32 64 32H576C611.3 32 640 60.65 640 96V416C640 451.3 611.3 480 576 480H64C28.65 480 0 451.3 0 416V96zM48 96V416C48 424.8 55.16 432 64 432H576C584.8 432 592 424.8 592 416V96C592 87.16 584.8 80 576 80H64C55.16 80 48 87.16 48 96z"/></svg>
